X: 42
T:Basket of Oysters (#152), The
M:6/8
L:1/8
S:O'Farrell's Pocket Companion 1804-10
K:G
(3def|gag gab|abg fga|gfg eag|fdB BAB|
gag gab|abg fga|gfe afd|e3 e2:|
|:g|dec BcA|GBd gfe|dec BcA|BGE E3|
dec BcA|GBd g2 a|bge afd|e3 e2:|
|:g/2a/2|bgg dgg|af/2g/2a/2f/2 dfa|gfg efg|fdB B2 g|
bgg dgg|af/2g/2a/2f/2 dfa|gfe afd|e3 e2:|
|:g|dBB GBB|dBB gBB|dBB GBA|BGE E2 e|
dec BcA|GBd g2 a|bc'b agf|e3 e2:||

